X:1
T:Pizzicati (Scherzettino)
T:Pizzicati (Scherzettino)
T:SYLVIA BALLET by LÉO DELIBES.
T:PIZZICATI. (SCHERZETTINO.)
T:Public Domain
T:Public Domain
T:Public Domain
T:Public Domain
T:Public Domain
T:Public Domain
C:Léo Delibes
C:
Z:Public Domain
%%score { ( 1 2 ) | ( 3 4 ) }
L:1/8
Q:1/4=80
M:6/8
K:Eb
V:1 treble nm="PIANO."
V:2 treble 
V:3 bass 
V:4 bass 
V:1
"^Andante."!p! (A6 | e3-) e z z | (=A6 | =e3-) e z z | (B6 | !fermata!b3-) b z z || %6
[M:2/4][Q:1/4=69]"^Allegretto ben moderato." z2 z3/2!p! .G/ | .B/.F/.A/.E/ .G/.B/.c/.e/ | %8
 .d !wedge![Bf]!arpeggio!!wedge![Bfb] z/ .c/ | .e/.B/.d/.A/ .c/.d/.f/.a/ | %10
 .g !wedge![Beg]!arpeggio!!wedge![Beb] z/ .G/ | .B/.F/.A/.E/ .G/.B/.c/.e/ | %12
 .d !wedge![d=a]!arpeggio!!wedge![dad'] z/ .d/ | .g/.B/.c/.e/ .d/.G/.=A/.B/ | %14
!<(! .G/.B/.=A/!<)!!sfz!.B/!>(! .G/.B/._A/.G/!>)! |!p! .B/.F/.A/.E/ .G/.B/.c/.e/ | %16
 .d !wedge![Bf]!arpeggio!!wedge![Bfb] z/ .c/ | .e/.B/.d/.A/ .c/.d/.f/.a/ | %18
 .g !wedge![Beb]!arpeggio!!wedge![ebe'] z/ .B/ | .e/.B/._d/.c/ .f/.c/.e/.=d/ | %20
 .g/.d/.f/.d/ .e/.f/.g/"_cresc.".a/ | .b/.g/.a/.=a/ .b/.=b/.c'/.d'/ | %22
 .e'!mf! !arpeggio!!wedge![Bdfb]!arpeggio!!wedge![egbe'] z/!p! .e/ | .d/.=A/.B/.c/ .d/.A/.B/.c/ | %24
 d !wedge![dgb]!arpeggio!!wedge![dgd'] z/ .g/ | .=f/.c/.d/.e/ .f/.c/.d/.e/ | %26
!<(! .f/.g/.f/.c/ .e/.f/.e/.B/!<)! |!sfz! .d/!>(!.e/.d/.A/ .c/.d/.c/.G/!>)! | %28
!p! .B/.F/.A/.E/ .G/.B/.c/.e/ | .d !wedge![Bf]!arpeggio!!wedge![Bfb] z/ .c/ | %30
 .e/.B/.d/.A/ .c/.d/.f/.a/ | !wedge!g !wedge![Beb]!arpeggio!!wedge![ebe'] z/ .B/ | %32
 .e/.B/._d/.c/ .f/.c/.e/.=d/ | .g/.d/.f/.d/ .e/.f/.g/"_cresc.".a/ | .b/.g/.a/.=a/ .b/.=b/.c'/.d'/ | %35
 .e'!mf! !arpeggio!!wedge![Bdfb]!arpeggio!!wedge![egbe'] z ||[K:Ab]!p!"^(Flûte.)" c2- (c/d/F/G/) | %37
 c2- (c/d/F/G/) | (c/d/f/e/ g/f/e/c/) | (c/d/F/c/) (BE/) z/ |!p! c2- (c/d/F/G/) | c2- (c/d/F/G/) | %42
!<(! (c/d/f/e/!<)!!>(! a/e/c/d/)!>)! | B (B/c/ A) e |"^(Fl.)\n(Cl.)"{/c} c'2- (c'/d'/f/g/) | %45
{/c} c'2- (c'/d'/f/g/) |!<(! (c'/d'/f'/e'/!<)!!>(! g'/f'/e'/c'/)!>)! | (c'/d'/f/c'/) (be/) z/ | %48
{/c} c'2- (c'/d'/f/g/) |{/c} c'2- (c'/d'/f/g/) |!<(! (c'/d'/f'/e'/!<)!!>(! a'/e'/c'/d'/)!>)! | %51
 b (b/c'/) a |[K:Eb]!p!"^un peu plus animé" z/ .G/ | .B/.F/.A/.E/ .G/.B/.c/.e/ | %54
 .d !wedge![Bf]!arpeggio!!wedge![Bfb] z/ .c/ | .e/.B/.d/.A/ .c/.d/.f/.a/ | %56
 .g !wedge![Beg]!arpeggio!!wedge![Beb] z/ .G/ | .B/.F/.A/.E/ .G/.B/.c/.e/ | %58
 .d !wedge![d=a]!arpeggio!!wedge![dad'] z/ .d/ | .g/.B/.c/.e/ .d/.G/.=A/.B/ | %60
!<(! .G/.B/.=A/!<)!!sfz!.B/!>(! .G/.B/._A/.G/!>)! |!p! .B/.F/.A/.E/ .G/.B/.c/.e/ | %62
 .d !wedge![Bf]!arpeggio!!wedge![Bfb] z/ .c/ | .e/.B/.d/.A/ .c/.d/.f/.a/ | %64
 .g !wedge![Beb]!arpeggio!!wedge![ebe'] z/ .B/ | %65
"^en animant jusqu'à la fin." .e/.B/._d/.c/"_cresc." .f/.c/.e/.=d/ | .g/.d/.f/.d/ .e/.f/.g/.a/ | %67
 .b/.g/.a/.=a/ .b/.=b/.c'/.d'/ | .e'!ff! !>![Bdfb] !>![egbe'] !fermata!z |] %69
V:2
 E6- | E z z z2 z | =E6- | E z z z2 z | _A6- | A z z z2 !fermata!z ||[M:2/4] x4 | x4 | x4 | x4 | %10
 x4 | x4 | x4 | x4 | x4 | x4 | x4 | x4 | x4 | x4 | x4 | x4 | x4 | x4 | x4 | x4 | x4 | x4 | x4 | %29
 x4 | x4 | x4 | x4 | x4 | x4 | x4 ||[K:Ab] z .e.e' z | z .e.e' z | x4 | x4 | z .e.e' z | %41
 z .e.e' z | x4 | x .E.E z | x4 | x4 | x4 | x4 | x4 | x4 | x4 | x .e.e |[K:Eb] x | x4 | x4 | x4 | %56
 x4 | x4 | x4 | x4 | x4 | x4 | x4 | x4 | x4 | x4 | x4 | x4 | x4 |] %69
V:3
 [A,C]6- | [A,C] z z z2 z | [G,^C]6- | [G,C] z z z2 z | [F,B,D]6- | %5
 [F,B,D] z !fermata!z z2 !fermata!z ||[M:2/4]!p!"^(Quat. pizz.)"{/E,,} .E,/z/.B,/z/.B,,/z/.B,/ z/ | %7
"^molto  staccato." .E,/z/.B,/z/.B,,/z/.[G,B,]/ z/ | %8
{/F,,} .F,[K:treble] !wedge![B,DA]!arpeggio!!wedge![DFA] z | %9
[K:bass] .F,/z/.B,/z/.B,,/z/.[A,B,D]/ z/ | %10
{/E,,} .E,[K:treble] !wedge![B,E]!arpeggio!!wedge![EG] z | %11
[K:bass] .E,/z/.B,/z/.B,,/z/.[G,B,E]/ z/ | %12
{/^F,,} .^F,[K:treble] !wedge![D^Fc]!arpeggio!!wedge![Fc] z | %13
[K:bass] .G,/z/.[B,D]/z/.D,/z/.[^F,C]/ z/ | .G,,/z/.[D,G,B,]/ z/ z2 | %15
 .E,/z/.B,/z/.B,,/z/.[G,B,]/ z/ |{/F,,} .F,[K:treble] !wedge![B,DA]!arpeggio!!wedge![DFA] z | %17
[K:bass] .F,/z/.B,/z/.B,,/z/.[A,B,D]/ z/ |{/E,,} .E,[K:treble] !wedge![EG]!arpeggio!!wedge![GB] z | %19
[K:bass] .G,/z/!>!E/z/.=A,/z/!>!F/ z/ | .=B,/z/!>!G/z/.C/z/!>!E/ z/ | %21
 .B,,/z/.[G,B,E]/ z/ .B,,/z/.[A,B,DF]/ z/ | %22
 .[E,E] !arpeggio!!wedge![B,F]!arpeggio!!wedge![E,B,G] z | ^F,,/z/D/ z/ .D,/z/.[^F,C]/ z/ | %24
 .G,,[K:treble] !wedge![G,DG]!arpeggio!!wedge![B,DG] z |[K:bass] =A,,/z/=F/ z/ .F,/z/.[=A,E]/ z/ | %26
 .B,,/ z/ !>![B,D_A] z2 | z4 |{/E,,} .E,/z/.B,/z/.B,,/z/.[G,B,]/ z/ | %29
{/F,,} .F,[K:treble] !wedge![B,DA]!arpeggio!!wedge![DFA] z | %30
[K:bass][K:bass] .F,/z/.B,/z/.B,,/z/.[A,B,D]/ z/ | %31
{/E,,} .E,[K:treble] !wedge![EG]!arpeggio!!wedge![GB] z |[K:bass] .G,/z/!>!E/z/.=A,/z/!>!F/ z/ | %33
 .=B,/z/!>!G/z/.C/z/!>!E/ z/ | .B,,/z/.[G,B,E]/ z/ .B,,/z/.[A,B,DF]/ z/ | %35
 .[E,E] !arpeggio!!wedge![B,,F,B,]!arpeggio!!wedge![E,,B,,G,] z || %36
[K:Ab]{/A,,,} A,,"^bien   soutenu." .E,.[G,DE] z |{/A,,,} A,, .E,.[G,DE] z | %38
{/A,,,} A,, .E,.[A,CE].E, | A,, .E,.[G,D].E, |{/A,,,} A,, .E,.[G,DE] z |{/A,,,} A,, .E,.[G,DE] z | %42
{/A,,,} A,, .E,.[A,CE].E, | E,, .[E,G,D].[A,C] z |{/A,,,} A,, .E,E.[E,D] |{/A,,,} A,, .E,E.[E,D] | %46
{/A,,,} A,, .E,.[A,CE].E, | A,, .E,.[G,DE].E, |{/A,,,} A,, .E,E.[E,D] |{/A,,,} A,, .E,E.[E,D] | %50
{/A,,,} A,, .E,.[A,CE].E, | E,, .[E,G,D].[A,C] |[K:Eb] z/ z/ | .E,/z/.B,/z/.B,,/z/.[G,B,]/ z/ | %54
{/F,,} .F,[K:treble] !wedge![B,DA]!arpeggio!!wedge![DFA] z | %55
[K:bass] .F,/z/.B,/z/.B,,/z/.[A,B,D]/ z/ | %56
{/E,,} .E,[K:treble] !wedge![B,E]!arpeggio!!wedge![EG] z | %57
[K:bass] .E,/z/.B,/z/.B,,/z/.[G,B,E]/ z/ | %58
{/^F,,} .^F,[K:treble] !wedge![D^Fc]!arpeggio!!wedge![Fc] z | %59
[K:bass] .G,/z/.[B,D]/z/.D,/z/.[^F,C]/ z/ | .G,,/z/.[D,G,B,]/ z/ z2 | %61
 .E,/z/.B,/z/.B,,/z/.[G,B,]/ z/ |{/F,,} .F,[K:treble] !wedge![B,DA]!arpeggio!!wedge![DFA] z | %63
[K:bass] .F,/z/.B,/z/.B,,/z/.[A,B,D]/ z/ |{/E,,} .E,[K:treble] !wedge![EG]!arpeggio!!wedge![GB] z | %65
[K:bass] G,/z/E/z/=A,/z/F/ z/ | =B,/z/G/ z/ C/z/E/ z/ | ._B,,/z/.[B,EG]/ z/ .B,,/z/.[A,B,DF]/ z/ | %68
 .[E,E]"^arco." !>![B,,D,F,B,] !>![E,,G,,B,,E,] !fermata!z |] %69
V:4
 x6 | x6 | x6 | x6 | x6 | x6 ||[M:2/4] x4 | x4 | x[K:treble] x3 |[K:bass] x4 | x[K:treble] x3 | %11
[K:bass] x4 | x[K:treble] x3 |[K:bass] x4 | x4 | x4 | x[K:treble] x3 |[K:bass] x4 | %18
 x[K:treble] x3 |[K:bass] x4 | x4 | x4 | x4 | x !>!D3 | x[K:treble] x3 |[K:bass] x !>!F3 | x4 | %27
 x4 | x4 | x[K:treble] x3 |[K:bass][K:bass] x4 | x[K:treble] x3 |[K:bass] x4 | x4 | x4 | x4 || %36
[K:Ab] x4 | x4 | x4 | x4 | x4 | x4 | x4 | x4 | x2 !>!E2 | x2 !>!E2 | x4 | x4 | x2 !>!E2 | %49
 x2 !>!E2 | x4 | x3 |[K:Eb] x | x4 | x[K:treble] x3 |[K:bass] x4 | x[K:treble] x3 |[K:bass] x4 | %58
 x[K:treble] x3 |[K:bass] x4 | x4 | x4 | x[K:treble] x3 |[K:bass] x4 | x[K:treble] x3 | %65
[K:bass] z !>!E2 !>!F- | F !>!G2 !>!E | x4 | x4 |] %69

